dist/images/phone.svg

<svg width="19" height="19" viewBox="0 0 19 19" fill="none" xmlns="http://www.w3.org/2000/svg">
<path d="M11.5298 4.24922C12.3247 4.40401 13.0553 4.79205 13.628 5.36365C14.2007 5.93525 14.5895 6.66441 14.7446 7.45782M11.5298 1C13.1814 1.18312 14.7214 1.9213 15.8972 3.09331C17.0729 4.26533 17.8144 5.80154 18 7.4497M17.1861 13.9319V16.3688C17.1871 16.595 17.1406 16.819 17.0498 17.0262C16.959 17.2335 16.8258 17.4196 16.6588 17.5725C16.4918 17.7255 16.2946 17.8419 16.0799 17.9144C15.8652 17.9869 15.6377 18.0138 15.4119 17.9934C12.9075 17.7218 10.5019 16.8677 8.38831 15.4996C6.42189 14.2525 4.7547 12.5885 3.50516 10.6258C2.12971 8.50667 1.27375 6.09396 1.00661 3.58313C0.986268 3.3585 1.01301 3.1321 1.08514 2.91836C1.15727 2.70461 1.2732 2.5082 1.42555 2.34162C1.5779 2.17504 1.76334 2.04195 1.97005 1.95082C2.17675 1.85969 2.40021 1.81252 2.62619 1.8123H5.06777C5.46274 1.80842 5.84565 1.94802 6.14512 2.20508C6.4446 2.46214 6.64021 2.81911 6.69549 3.20947C6.79854 3.98933 6.98966 4.75506 7.26519 5.49204C7.37469 5.78279 7.39839 6.09876 7.33348 6.40254C7.26857 6.70631 7.11777 6.98515 6.89895 7.20601L5.86535 8.23763C7.02392 10.2713 8.71097 11.9551 10.7485 13.1115L11.7821 12.0798C12.0034 11.8614 12.2828 11.7109 12.5871 11.6461C12.8915 11.5814 13.2081 11.605 13.4994 11.7143C14.2377 11.9893 15.0049 12.1801 15.7863 12.2829C16.1816 12.3386 16.5427 12.5373 16.8008 12.8414C17.0589 13.1454 17.196 13.5335 17.1861 13.9319Z" stroke="white" stroke-width="2" stroke-linecap="round" stroke-linejoin="round"/>
</svg>

<svg width="19" height="19" fill="none" xmlns="http://www.w3.org/2000/svg"><path d="M11.53 4.25a4.072 4.072 0 0 1 3.215 3.208M11.53 1a7.33 7.33 0 0 1 4.367 2.093A7.306 7.306 0 0 1 18 7.45m-.814 6.482v2.437a1.62 1.62 0 0 1-1.106 1.545 1.63 1.63 0 0 1-.668.08A16.125 16.125 0 0 1 8.388 15.5a15.854 15.854 0 0 1-4.883-4.874 16.055 16.055 0 0 1-2.498-7.043 1.622 1.622 0 0 1 .963-1.632 1.63 1.63 0 0 1 .656-.139h2.442A1.63 1.63 0 0 1 6.695 3.21a10.5 10.5 0 0 0 .57 2.283A1.622 1.622 0 0 1 6.9 7.206L5.865 8.238a13.01 13.01 0 0 0 4.883 4.873l1.034-1.031a1.63 1.63 0 0 1 1.717-.366 10.49 10.49 0 0 0 2.287.569 1.629 1.629 0 0 1 1.4 1.649Z" stroke="#fff" stroke-width="2" stroke-linecap="round" stroke-linejoin="round"/></svg>
